pix_core/i/categoryevent.svg

<svg preserveAspectRatio="xMinYMid meet" viewBox="0 0 512 512" xmlns="http://www.w3.org/2000/svg"><path d="m315.4 15.5c-5.7-9.6-16.2-15.5-27.4-15.5s-21.7 5.9-27.4 15.5l-96 160c-5.9 9.9-6.1 22.2-.4 32.2s16.3 16.2 27.8 16.2h192c11.5 0 22.2-6.2 27.8-16.2s5.5-22.3-.4-32.2zm-27.4 296.5v144c0 22.1 17.9 40 40 40h144c22.1 0 40-17.9 40-40v-144c0-22.1-17.9-40-40-40h-144c-22.1 0-40 17.9-40 40zm-160 200a128 128 0 1 0 0-256 128 128 0 1 0 0 256z" fill="#fff"/></svg>

<svg xmlns="http://www.w3.org/2000/svg" viewBox="0 0 512 512" preserveAspectRatio="xMinYMid meet"><!--!Font Awesome Free 6.5.2 by @fontawesome - https://fontawesome.com License - https://fontawesome.com/license/free Copyright 2024 Fonticons, Inc.--><path fill="#fff" d="M315.4 15.5C309.7 5.9 299.2 0 288 0s-21.7 5.9-27.4 15.5l-96 160c-5.9 9.9-6.1 22.2-.4 32.2s16.3 16.2 27.8 16.2H384c11.5 0 22.2-6.2 27.8-16.2s5.5-22.3-.4-32.2l-96-160zM288 312V456c0 22.1 17.9 40 40 40H472c22.1 0 40-17.9 40-40V312c0-22.1-17.9-40-40-40H328c-22.1 0-40 17.9-40 40zM128 512a128 128 0 1 0 0-256 128 128 0 1 0 0 256z"/></svg>
